X:1
T:The Morning Light
T:The Morning Light
T:James Ramsey Murray
T:Anonymous, 1881
T:Public Domain Courtesy of the Cyber Hymnal™
T:Public Domain Courtesy of the Cyber Hymnal™
C:James Ramsey Murray
Z:Public Domain
Z:Courtesy of the Cyber Hymnal™
%%score ( 1 2 ) ( 3 4 )
L:1/8
Q:1/4=96
M:4/4
K:Eb
V:1 treble 
V:2 treble 
V:3 bass 
V:4 bass 
V:1
 [EB] | [EB]2 [EG]2 E3 [EF] | [EG][FA][GB][Ac] [GB]2 [EG][DF] | [EG]2 [DF]2 [B,D][B,D][B,D]E | %4
w: 1.~The|morn- ing light is|sure- ly grow- ing bright- er, The|star of Beth- le- hem, how|
w: 2.~Ho!|ev- ery one that|thirst- eth, take the wa- ters! Be-|hold the pre- cious bread of|
w: 3.~The|time fore- told is|dai- ly draw- ing near- er, When|Christ will show us plain- ly|
 [DF][EG][FA][DB] [EA]3 [EB] | [EB]2 [EG]2 E3 [EF] | [EG][FA][GB][Ac] [GB]2 [EG][EB] | %7
w: pure its gen- tle ray; The|gloom- y sky is|grow- ing clear- er, light- er, And|
w: life for all that will; The|Fount of Right- eous-|ness, O sons and daugh- ters, Your|
w: of the Fa- ther’s love; And|saints His will, with|vi- sion grow- ing clear- er, Shall|
 [Ee]2 [Ec]2 [EB]3 [EG] | [GB][FA][EG][DF] E3 [EG] | [DF]2 [EG]2 [FA]3 [FA] | %10
w: soon will dawn the|bless- èd, per- fect day. At|last the veil for|
w: long- ing, hun- gry|thirst- ing souls can fill. Come|un- to Him, all|
w: do on earth as|done in Heav’n a- bove. See|now the wait- ing|
 [FA][FA][EG][DF] [EG]2 [EB][EG] | [FB]2 [Fc]2 [Fd][Gd][Ff][Ge] | [Fd][DB][Ec][C=A] [DB]3 [DB] | %13
w: us is rent a- sun- der, The|Spir- it speak- eth as it|ne- ver spake be- fore; We|
w: ye that toil and la- bor, And|ye who are with hea- vy|loads of sin op- pressed; Now|
w: har- vest stand- ing thick- ly, And|lo! the Mas- ter is the|Prince of Beth- le- hem; Make|
 [EB]2 [EG]2 E3 [EF] | [EG][FA][GB][Ac] [GB]2 [EG][EB] | [Ee]2 [Ec]2 [EB]3 [EG] | %16
w: see and hear, we|feel a thrill of won- der, To|find the Mas- ter|
w: learn to serve the|Lord and love thy neigh- bor, And|He will give your|
w: rea- dy all! be-|hold He com- eth quick- ly, To|gar- ner for the|
 [GB][FA][EG][DF] !fermata!E3 |] %17
w: knock- ing at the door.|
w: wea- ry spir- its rest.|
w: New Je- ru- sa- lem!|
V:2
 x | x4 E3 x | x8 | x7 E | x8 | x4 E3 x | x8 | x8 | x4 E3 x | x8 | x8 | x8 | x8 | x4 E3 x | x8 | %15
 x8 | x4 E3 |] %17
V:3
 [E,G,] | [E,G,]2 [E,B,]2 [E,G,]3 [E,A,] | [E,B,][E,E][E,E][E,E] [E,E]2 [E,B,][E,B,] | %3
 [B,,B,]2 [B,,B,]2 [B,,B,][B,,B,][A,B,][G,B,] | [F,B,][E,B,][D,B,][B,,B,] [E,B,]3 [E,G,] | %5
 [E,G,]2 [E,B,]2 [E,G,]3 [E,A,] | [E,B,][E,E][E,E][E,E] [E,E]2 [E,B,][E,G,] | %7
 [A,,C]2 [C,A,]2 [E,G,]3 [E,B,] | [B,,B,][B,,B,][B,,B,][B,,A,] [E,G,]3 [E,B,] | %9
 [B,,B,]2 [B,,B,]2 [B,,B,]3 [B,,B,] | [B,,B,][B,,B,][B,,B,][B,,B,] [E,B,]2 [E,G,][E,B,] | %11
 [D,B,]2 [F,=A,]2 B,[G,B,][D,B,][E,B,] | [F,B,][F,B,]F,F, [B,,F,]3 [B,,A,] | %13
 [E,G,]2 [E,B,]2 [E,G,]3 [E,A,] | [E,B,][E,E][E,E][E,E] [E,E]2 [E,B,][E,G,] | %15
 [A,,C]2 [C,A,]2 [E,G,]3 [E,B,] | [B,,B,][B,,B,][B,,B,][B,,A,] !fermata![E,G,]3 |] %17
V:4
 x | x8 | x8 | x8 | x8 | x8 | x8 | x8 | x8 | x8 | x8 | x4 B, x3 | x2 F,F, x4 | x8 | x8 | x8 | x7 |] %17

